icons/Media/image-2-line.svg

<svg viewBox="0 0 24 24" xmlns="http://www.w3.org/2000/svg"><path d="M5 11.1005L7 9.1005L12.5 14.6005L16 11.1005L19 14.1005V5H5V11.1005ZM5 13.9289V19H8.1005L11.0858 16.0147L7 11.9289L5 13.9289ZM10.9289 19H19V16.9289L16 13.9289L10.9289 19ZM4 3H20C20.5523 3 21 3.44772 21 4V20C21 20.5523 20.5523 21 20 21H4C3.44772 21 3 20.5523 3 20V4C3 3.44772 3.44772 3 4 3ZM15.5 10C14.6716 10 14 9.32843 14 8.5C14 7.67157 14.6716 7 15.5 7C16.3284 7 17 7.67157 17 8.5C17 9.32843 16.3284 10 15.5 10Z"/></svg>

<svg xmlns="http://www.w3.org/2000/svg" viewBox="0 0 24 24">
    <g>
        <path fill="none" d="M0 0h24v24H0z"/>
        <path d="M5 11.1l2-2 5.5 5.5 3.5-3.5 3 3V5H5v6.1zm0 2.829V19h3.1l2.986-2.985L7 11.929l-2 2zM10.929 19H19v-2.071l-3-3L10.929 19zM4 3h16a1 1 0 0 1 1 1v16a1 1 0 0 1-1 1H4a1 1 0 0 1-1-1V4a1 1 0 0 1 1-1zm11.5 7a1.5 1.5 0 1 1 0-3 1.5 1.5 0 0 1 0 3z"/>
    </g>
</svg>
